source/images/icons/icon-editorial/feuille.svg

<?xml version="1.0" encoding="UTF-8"?>
<svg width="80px" height="80px" viewBox="0 0 80 80" version="1.1" xmlns="http://www.w3.org/2000/svg" xmlns:xlink="http://www.w3.org/1999/xlink">
    <!-- Generator: Sketch 55.2 (78181) - https://sketchapp.com -->
    <title>Illustrative Icons/Feuille</title>
    <desc>Created with Sketch.</desc>
    <g id="Illustrative-Icons/Feuille" stroke="none" stroke-width="1" fill="none" fill-rule="evenodd">
        <path d="M59.5837139,13.2613376 C60.4590852,13.2613376 61.1687139,12.5517089 61.1687139,11.6763376 C61.1687139,10.8009663 60.4590852,10.0913376 59.5837139,10.0913376 C58.7083425,10.0913376 57.9987139,10.8009663 57.9987139,11.6763376 C57.9987139,12.5517089 58.7083425,13.2613376 59.5837139,13.2613376 Z M68.4187139,10.0130043 C67.9770888,9.98986066 67.5443708,10.1431811 67.215834,10.439208 C66.8872973,10.7352349 66.6898794,11.1496963 66.6670472,11.5913376 C66.6520472,11.8946709 65.0270472,41.9980043 58.0853805,53.394671 C55.2053805,58.1230043 49.2120472,61.494671 42.4437138,62.194671 C35.7437138,62.8880043 29.4737138,60.919671 25.0203805,56.7730043 L46.1020472,35.5863376 C46.751442,34.9337211 46.7488303,33.8782324 46.0962138,33.2288376 C45.4435974,32.5794428 44.3881087,32.5820545 43.7387138,33.2346709 L22.7537138,54.334671 C18.6787138,49.399671 16.5570471,43.729671 16.7437138,38.1830043 C16.9337138,32.5530043 19.4437138,27.3313376 24.0020471,23.0813376 C33.4370472,14.2796709 53.8987139,13.3513376 54.1037139,13.3346709 C54.6991565,13.3108532 55.2366616,12.9711799 55.5137562,12.4436026 C55.7908508,11.9160252 55.7654376,11.2806955 55.4470895,10.7769359 C55.1287415,10.2731763 54.5658232,9.97751988 53.9703805,10.0013376 C49.8988731,10.2348734 45.8510599,10.7781105 41.8620472,11.6263376 C32.8787138,13.5196709 26.1053805,16.5480043 21.7287138,20.6263376 C16.5003805,25.5013376 13.6320471,31.5313376 13.4103805,38.0663376 C13.1937138,44.5263376 15.6670471,51.0813376 20.3937138,56.7013376 L10.4853805,66.659671 C10.0652956,67.0818398 9.90234566,67.6960525 10.0579122,68.270941 C10.2134787,68.8458296 10.6639275,69.2940547 11.2395789,69.4467744 C11.8152303,69.5994941 12.428629,69.4335065 12.8487138,69.0113377 L22.6670471,59.1380043 C27.1670472,63.364671 33.2353805,65.6680043 39.8170472,65.6680043 C40.8096074,65.6674112 41.8014779,65.615676 42.7887138,65.5130043 C46.4763722,65.1441351 50.051645,64.0347631 53.3003805,62.2513376 C56.5687139,60.4280043 59.2087139,57.9663376 60.9353805,55.129671 C64.0570472,50.004671 66.5320472,41.129671 68.2887139,28.7463376 C69.5837139,19.6163376 70.0003805,11.8346709 70.0003805,11.7630043 C70.0230508,11.3211102 69.8690721,10.8883379 69.5723815,10.5600712 C69.2756909,10.2318044 68.8606426,10.0349893 68.4187139,10.0130043 Z" id="Shape-color" fill="#ADB5BD"></path>
    </g>
</svg>

<svg width="80" height="80">
    <title>
        Illustrative Icons/Feuille
    </title>
    <path d="M59.584 13.261a1.585 1.585 0 1 0 0-3.17 1.585 1.585 0 0 0 0 3.17zm8.835-3.248a1.667 1.667 0 0 0-1.752 1.578c-.015.304-1.64 30.407-8.582 41.804-2.88 4.728-8.873 8.1-15.641 8.8-6.7.693-12.97-1.275-17.424-5.422l21.082-21.187a1.667 1.667 0 0 0-2.363-2.351l-20.985 21.1c-4.075-4.935-6.197-10.605-6.01-16.152.19-5.63 2.7-10.852 7.258-15.102 9.435-8.801 29.897-9.73 30.102-9.746A1.668 1.668 0 1 0 53.97 10c-4.071.234-8.119.777-12.108 1.625-8.983 1.894-15.757 4.922-20.133 9-5.229 4.875-8.097 10.905-8.319 17.44-.216 6.46 2.257 13.015 6.984 18.635l-9.909 9.959a1.667 1.667 0 1 0 2.364 2.351l9.818-9.873c4.5 4.227 10.568 6.53 17.15 6.53.993 0 1.984-.052 2.972-.155A27.54 27.54 0 0 0 53.3 62.251c3.269-1.823 5.909-4.285 7.635-7.121 3.122-5.125 5.597-14 7.354-26.384C69.584 19.616 70 11.835 70 11.763a1.667 1.667 0 0 0-1.581-1.75z" fill="#ADB5BD" fill-rule="evenodd"/>
</svg>
